X:2908
T:Old King Cole
C:anon.
O:England
Z:Transcribed by Frank Nordberg - http://www.musicaviva.com
F:http://abc.musicaviva.com/tunes/england/old-king-cole/old-king-cole.abc
M:C
L:1/4
K:Bb
B2B2|A2AA|GGG2|F2FF|GGG2|A2F2|B3 z|
F2F2|B2BB|A2AA|GGG2|F2FF|G2GG|AGF2|B2F2|B3 z|]
W:
W:
W:  From Musica Viva - http://www.musicaviva.com
W:  the Internet center for free sheet music downloads.
